package/converter/svg/duotone/bars-sort.svg

<svg xmlns="http://www.w3.org/2000/svg" viewBox="0 0 448 512"><!-- Font Awesome Pro 6.0.0-alpha2 by @fontawesome - https://fontawesome.com License - https://fontawesome.com/license (Commercial License) --><defs><style>.fa-secondary{opacity:.4}</style></defs><path d="M288 224H32C14.327 224 0 238.327 0 256V256C0 273.673 14.327 288 32 288H288C305.673 288 320 273.673 320 256V256C320 238.327 305.673 224 288 224Z" class="fa-secondary"/><path d="M160 384H32C14.327 384 0 398.327 0 416V416C0 433.673 14.327 448 32 448H160C177.673 448 192 433.673 192 416V416C192 398.327 177.673 384 160 384ZM416 64H32C14.327 64 0 78.327 0 96V96C0 113.673 14.327 128 32 128H416C433.673 128 448 113.673 448 96V96C448 78.327 433.673 64 416 64Z" class="fa-primary"/></svg>

<svg xmlns="http://www.w3.org/2000/svg" viewBox="0 0 448 512"><!--! Font Awesome Pro 6.6.0 by @fontawesome - https://fontawesome.com License - https://fontawesome.com/license (Commercial License) Copyright 2024 Fonticons, Inc. --><defs><style>.fa-secondary{opacity:.4}</style></defs><path class="fa-secondary" d="M0 256c0-17.7 14.3-32 32-32l256 0c17.7 0 32 14.3 32 32s-14.3 32-32 32L32 288c-17.7 0-32-14.3-32-32z"/><path class="fa-primary" d="M448 96c0-17.7-14.3-32-32-32L32 64C14.3 64 0 78.3 0 96s14.3 32 32 32l384 0c17.7 0 32-14.3 32-32zM192 416c0-17.7-14.3-32-32-32L32 384c-17.7 0-32 14.3-32 32s14.3 32 32 32l128 0c17.7 0 32-14.3 32-32z"/></svg>
